src/assets/icons/beans-transparent-white.svg

<svg width="35" height="35" viewBox="0 0 35 35" fill="none" xmlns="http://www.w3.org/2000/svg">
<path d="M0.0541455 26.9849C0.600445 31.5459 6.09707 34.985 12.8399 34.985C18.9019 34.985 24.0514 32.1874 25.3643 28.1815L25.3655 28.1795C25.5709 27.5611 25.6769 26.9145 25.6798 26.263C25.6767 26.0667 25.663 25.8709 25.6388 25.6763L25.6319 25.6141C25.3931 23.8877 24.5379 22.3061 23.2236 21.1614C24.72 21.82 26.3324 22.1736 27.967 22.2024C29.3241 22.2278 30.6635 21.8915 31.8475 21.2283L31.8481 21.2275C32.3026 20.9693 32.7216 20.653 33.094 20.2862C33.3742 20.0009 33.6244 19.688 33.8415 19.3523L33.8421 19.3515C36.3037 15.6474 34.7286 9.42234 30.1779 4.87184C25.9639 0.657892 20.1703 -1.05624 16.4007 0.796676C15.7945 1.08992 15.2408 1.4809 14.7618 1.95397C14.5871 2.13293 14.4241 2.32272 14.2733 2.52249C11.4692 6.13343 12.9653 12.6554 17.6799 17.37C18.1459 17.8346 18.636 18.2743 19.1478 18.6875C17.1336 17.9212 14.9952 17.5325 12.8399 17.541C6.81977 17.541 1.54087 20.4327 0.287826 24.4167C0.0986018 25.0137 0.00142488 25.6364 0 26.263C0.00341972 26.5044 0.0216583 26.7455 0.0541455 26.9849ZM12.8399 33.8177C7.1626 33.8177 2.31657 31.1222 1.35193 27.5608C1.37501 27.5631 1.39866 27.5656 1.42118 27.5679C1.62978 27.5916 1.82841 27.6175 2.01393 27.6472C2.041 27.6514 2.06608 27.6563 2.09287 27.6608C2.26613 27.6896 2.43142 27.7207 2.59072 27.7537C2.61722 27.7591 2.64487 27.7643 2.67137 27.77C2.84178 27.8065 3.00622 27.8446 3.1678 27.8843C3.20285 27.8928 3.23762 27.9016 3.2721 27.9102C3.4277 27.9492 3.58158 27.9886 3.7369 28.029C5.24157 28.4559 6.80096 28.6585 8.36463 28.63C9.92658 28.6588 11.4843 28.4556 12.9867 28.0276C14.3927 27.6238 15.8515 27.4334 17.314 27.4628C18.7771 27.4334 20.2365 27.6238 21.6431 28.0273C21.7893 28.0652 21.9375 28.1034 22.0879 28.1413C22.1227 28.1501 22.1575 28.1587 22.1925 28.1675C22.3521 28.2071 22.516 28.2459 22.6864 28.2832C22.7072 28.2878 22.7294 28.2921 22.7505 28.2966C22.9081 28.3302 23.0725 28.3624 23.2441 28.3929C23.2746 28.3983 23.3037 28.404 23.3344 28.4092C23.5205 28.4411 23.7172 28.4699 23.9249 28.4961C23.9434 28.4987 23.9588 28.5018 23.9776 28.5041C22.4692 31.6217 17.9484 33.8177 12.8399 33.8177ZM29.3526 5.69741C33.1761 9.52123 34.7768 14.7531 33.2465 18.0329C33.2308 18.0147 33.2149 17.9964 33.1997 17.9782C33.045 17.7961 32.9017 17.6203 32.774 17.4533C32.7626 17.4384 32.7529 17.4245 32.7418 17.4099C32.6201 17.2492 32.509 17.0942 32.4049 16.9432C32.3881 16.9186 32.3705 16.8936 32.3539 16.8693C32.2479 16.7129 32.1488 16.5599 32.0533 16.4083C32.035 16.3792 32.0171 16.3504 31.9989 16.3213C31.9068 16.1737 31.8168 16.0267 31.7264 15.8782C30.9447 14.5246 29.967 13.2943 28.8254 12.2271C27.7248 11.1194 26.4655 10.1812 25.0893 9.44372C23.7995 8.75493 22.6206 7.87691 21.5915 6.83846C20.522 5.84161 19.6078 4.69002 18.8794 3.42245C18.8053 3.30019 18.7298 3.17651 18.6528 3.05198L18.5939 2.95708C18.5112 2.82428 18.426 2.68977 18.3348 2.55156C18.3248 2.53617 18.3137 2.52021 18.3035 2.50482C18.2211 2.38057 18.1333 2.25319 18.0401 2.12239C18.0185 2.09218 17.9977 2.06226 17.9755 2.03148C17.8714 1.88785 17.7603 1.73995 17.6395 1.58663C17.6315 1.57609 17.6249 1.56668 17.6167 1.55642C20.9517 0.434471 25.7425 2.08705 29.3526 5.69741ZM15.5871 2.77926C15.8675 2.5014 16.1812 2.25917 16.5209 2.05855C16.5309 2.07024 16.5392 2.08135 16.5489 2.09303C16.6777 2.24977 16.7948 2.39967 16.9039 2.54501C16.9216 2.56866 16.9407 2.59317 16.9581 2.61654C17.0672 2.76472 17.1675 2.90807 17.2624 3.04827C17.2813 3.0762 17.3001 3.10384 17.3183 3.13149C17.4109 3.27056 17.4995 3.40763 17.5842 3.54328C17.5996 3.56779 17.6147 3.59229 17.6298 3.6168C17.7147 3.75388 17.7979 3.89009 17.8817 4.02831C18.662 5.38052 19.6383 6.60991 20.7788 7.67629C21.8793 8.78371 23.1387 9.72185 24.5148 10.4597C25.8046 11.1482 26.9836 12.0262 28.0126 13.0649C29.0836 14.0629 29.9992 15.2156 30.7293 16.4846C30.7894 16.5832 30.8498 16.6824 30.9111 16.7824C30.9319 16.8161 30.9536 16.8505 30.9747 16.8844C31.0177 16.9537 31.0607 17.0229 31.1052 17.0931C31.1314 17.1344 31.159 17.1763 31.1858 17.2179C31.2277 17.2831 31.2702 17.3484 31.3146 17.4151C31.3443 17.4595 31.3753 17.5051 31.4064 17.5504C31.4506 17.6154 31.4962 17.6812 31.5432 17.7479C31.5774 17.7961 31.6127 17.8451 31.6483 17.8944C31.6968 17.9608 31.7467 18.0283 31.7985 18.0967C31.8376 18.1483 31.8775 18.2008 31.9185 18.2535C31.9724 18.3227 32.0293 18.3937 32.0872 18.4652C32.1314 18.5199 32.1755 18.5746 32.2226 18.6308C32.2835 18.7043 32.3491 18.7801 32.4149 18.8562C32.4657 18.9146 32.515 18.9725 32.5682 19.0323C32.5813 19.0471 32.5925 19.0608 32.6059 19.0756C32.5016 19.2107 32.389 19.3395 32.2687 19.4609C32.0801 19.6479 31.8749 19.8177 31.6557 19.9685L31.6355 19.9462C31.5982 19.9038 31.5648 19.8636 31.5292 19.8223C31.4617 19.7439 31.3944 19.6661 31.3323 19.5909C31.2938 19.5441 31.2579 19.4991 31.2212 19.4535C31.1673 19.3863 31.114 19.3196 31.0639 19.2546C31.0279 19.2081 30.9937 19.1628 30.9595 19.1172C30.9131 19.0554 30.8678 18.9941 30.8242 18.9337C30.792 18.8895 30.7606 18.8457 30.7301 18.8021C30.6874 18.7414 30.6458 18.6812 30.6056 18.6217C30.578 18.5809 30.55 18.5402 30.5233 18.4997C30.4825 18.4379 30.4426 18.3766 30.4033 18.3156C30.3793 18.2786 30.3551 18.2412 30.3317 18.2042C30.2896 18.1378 30.2485 18.0717 30.2078 18.0058C30.1884 17.9748 30.1687 17.9434 30.1496 17.9121C30.0918 17.818 30.0342 17.724 29.977 17.6297C29.1944 16.276 28.2164 15.0455 27.0745 13.978C25.9739 12.8703 24.7146 11.9321 23.3384 11.1946C22.0486 10.5061 20.8697 9.62781 19.8406 8.58936C18.7703 7.59165 17.8552 6.43949 17.1257 5.17135C17.0356 5.02345 16.9436 4.87355 16.8495 4.72194C16.8296 4.69002 16.8099 4.65811 16.7897 4.6259C16.6936 4.47316 16.5916 4.31699 16.4836 4.15683C16.4611 4.12321 16.438 4.08958 16.4146 4.05567C16.3021 3.8918 16.181 3.7231 16.0482 3.54727C16.0259 3.5182 16.002 3.48799 15.9795 3.45864C15.8356 3.27141 15.6814 3.07877 15.5064 2.87415L15.5019 2.86845C15.5301 2.83768 15.5583 2.80804 15.5871 2.77926ZM18.5052 16.5448C14.4603 12.4995 12.9322 7.09693 14.7926 3.84108C14.8065 3.85818 14.8213 3.87556 14.835 3.89237C14.9604 4.04683 15.0775 4.19616 15.1844 4.34007C15.2046 4.36714 15.2229 4.39336 15.2425 4.42015C15.3389 4.55209 15.4295 4.6809 15.5144 4.80658C15.5295 4.82938 15.5457 4.85217 15.5606 4.87469C15.6543 5.01518 15.7427 5.15311 15.8284 5.29018C15.8473 5.32011 15.8655 5.34974 15.884 5.37938C15.9661 5.5119 16.047 5.64412 16.1282 5.77778C16.9096 7.13028 17.8868 8.36023 19.0279 9.42719C20.1285 10.5346 21.3878 11.4727 22.7639 12.2103C24.0537 12.8991 25.2327 13.7771 26.2617 14.8155C27.3329 15.8141 28.2491 16.9671 28.9798 18.2361C29.0696 18.3837 29.1613 18.5328 29.2551 18.6838C29.277 18.7191 29.2987 18.7542 29.3212 18.7895C29.419 18.9445 29.5218 19.103 29.6321 19.2657C29.6544 19.2985 29.678 19.3321 29.7008 19.3655C29.8151 19.531 29.9362 19.7009 30.0716 19.879L30.0889 19.9029C30.2263 20.0827 30.3819 20.2731 30.5478 20.4695C30.5691 20.4945 30.5848 20.5168 30.6067 20.5424C27.2939 21.9134 22.2504 20.2891 18.5052 16.5448ZM12.8399 18.7083C18.5676 18.7083 23.4233 21.4332 24.3433 25.0316C24.3205 25.0291 24.2971 25.0268 24.2749 25.0245C24.0628 25.0009 23.8611 24.9746 23.673 24.9447C23.6479 24.9407 23.6245 24.9362 23.5997 24.9322C23.4268 24.9037 23.2618 24.8726 23.103 24.8398C23.0714 24.8333 23.0386 24.8273 23.0076 24.8205C22.8403 24.7848 22.6787 24.7472 22.52 24.7085C22.4784 24.6982 22.4365 24.688 22.3952 24.6774C22.2438 24.6395 22.0936 24.6013 21.9423 24.562C20.4377 24.1351 18.878 23.9325 17.314 23.961C15.7521 23.9322 14.1944 24.1351 12.692 24.5634C11.2859 24.9669 9.82713 25.1573 8.36463 25.1282C6.90127 25.1573 5.44191 24.9669 4.03498 24.5637C3.8905 24.5261 3.7443 24.4885 3.59612 24.4511C3.55565 24.4409 3.51518 24.4309 3.47415 24.4206C3.31627 24.3816 3.1544 24.3434 2.9857 24.3067C2.95919 24.3007 2.93127 24.2953 2.90419 24.2896C2.74831 24.2565 2.58559 24.2249 2.41603 24.1949C2.38468 24.1895 2.35476 24.1835 2.32284 24.1781C2.13561 24.1465 1.93698 24.118 1.72838 24.0918C1.70729 24.0892 1.68962 24.0858 1.66825 24.0832C3.145 20.9303 7.68154 18.7083 12.8399 18.7083ZM1.28211 25.2149L1.30405 25.2174C1.52975 25.2405 1.73807 25.2685 1.9367 25.2987C1.96491 25.3032 1.99483 25.3069 2.02276 25.3115C2.21427 25.3423 2.39437 25.3759 2.56849 25.4118C2.60354 25.4189 2.63888 25.426 2.67336 25.4337C2.8415 25.4696 3.00422 25.507 3.16352 25.546C3.20028 25.5551 3.23648 25.5643 3.27295 25.5734C3.42941 25.6127 3.58472 25.6526 3.74089 25.6934C5.24385 26.1211 6.8021 26.324 8.36463 26.2955C9.92658 26.3243 11.4843 26.1211 12.9867 25.6931C14.3927 25.2893 15.8515 25.0989 17.314 25.1282C18.7791 25.0992 20.2402 25.2893 21.6491 25.6919C21.7525 25.7187 21.8565 25.7455 21.9614 25.7723C22.0013 25.7826 22.0421 25.7925 22.0823 25.8025C22.1541 25.8207 22.2262 25.8387 22.2997 25.8564C22.3424 25.8666 22.3866 25.8769 22.4302 25.8871C22.5029 25.9042 22.5764 25.921 22.6513 25.9376C22.6978 25.9478 22.7451 25.9578 22.7927 25.9678C22.8674 25.9837 22.9437 25.9991 23.0215 26.0142C23.0717 26.0239 23.1224 26.0336 23.1737 26.043C23.2541 26.0576 23.337 26.0718 23.4208 26.0855C23.4732 26.094 23.5254 26.1026 23.5792 26.1108C23.6699 26.1248 23.7645 26.1373 23.8602 26.1502C23.9118 26.157 23.9622 26.1641 24.0158 26.1704C24.1275 26.1838 24.2447 26.1958 24.3638 26.2075C24.4068 26.2114 24.447 26.2163 24.4912 26.2203L24.5122 26.2226C24.5125 26.2359 24.5125 26.2496 24.5125 26.263C24.5114 26.6375 24.4669 27.0105 24.38 27.3747L24.3564 27.3719C24.1346 27.3488 23.93 27.3211 23.7345 27.2912C23.7043 27.2864 23.6727 27.2824 23.6431 27.2775C23.4547 27.247 23.2772 27.2137 23.1059 27.1784C23.0688 27.171 23.0321 27.1633 22.9956 27.1556C22.8303 27.1199 22.6696 27.0829 22.5126 27.0444C22.4747 27.035 22.437 27.0253 22.3994 27.0159C22.245 26.9772 22.0919 26.9378 21.9375 26.8977C20.4345 26.4696 18.8766 26.2667 17.314 26.2955C15.7521 26.2667 14.1944 26.4696 12.692 26.8979C11.2859 27.3015 9.82713 27.4918 8.36463 27.4628C6.89985 27.4916 5.43877 27.3015 4.03014 26.8991C3.92441 26.8717 3.81811 26.8441 3.71096 26.8167C3.67933 26.8088 3.64656 26.8008 3.61436 26.7925C3.53713 26.7731 3.45933 26.7537 3.37982 26.7344C3.33593 26.7238 3.29062 26.7136 3.24588 26.703C3.17578 26.6865 3.1051 26.6703 3.033 26.6543C2.98342 26.6432 2.93241 26.6326 2.8814 26.6218C2.81101 26.607 2.73919 26.5925 2.66624 26.5782C2.61152 26.5674 2.55624 26.5571 2.49981 26.5469C2.42629 26.5335 2.35049 26.5206 2.27383 26.5078C2.21455 26.4981 2.15528 26.4882 2.09372 26.479C2.01478 26.4668 1.93214 26.4557 1.84921 26.4448C1.78538 26.4363 1.7224 26.4275 1.65628 26.4195C1.56481 26.4086 1.46848 26.399 1.37216 26.3893C1.30947 26.383 1.24934 26.3759 1.18408 26.3702L1.16926 26.3687C1.16812 26.3334 1.16726 26.2981 1.16726 26.263C1.16783 25.9105 1.20631 25.5591 1.28211 25.2149Z" fill="white"/>
<path d="M6.6884 30.1179C6.44845 29.9939 6.22047 29.8637 6.00445 29.7272C5.73173 29.5565 5.37238 29.6389 5.20111 29.911C5.02983 30.1832 5.11105 30.5428 5.38263 30.7149C5.62543 30.868 5.88163 31.0144 6.1515 31.1546C6.4379 31.3028 6.79013 31.1908 6.93832 30.9047C7.08651 30.6183 6.9748 30.2661 6.6884 30.1179Z" fill="white"/>
<path d="M20.4496 29.1678C18.6255 30.6394 15.8518 31.4832 12.8399 31.4832C11.3176 31.4955 9.8029 31.2678 8.35152 30.8084C8.04545 30.7092 7.71687 30.8768 7.61713 31.1829C7.51739 31.4889 7.68439 31.8178 7.99017 31.9181C9.55811 32.4157 11.1947 32.6627 12.8399 32.6505C16.1137 32.6505 19.1544 31.7123 21.1826 30.0763C21.4334 29.8737 21.4727 29.5063 21.2704 29.2556C21.068 29.0045 20.7004 28.9652 20.4496 29.1678Z" fill="white"/>
<path d="M16.6894 9.21289C16.625 8.98291 16.5702 8.75579 16.5255 8.53179C16.4622 8.21576 16.1547 8.01086 15.8387 8.07412C15.5227 8.13739 15.3178 8.44488 15.381 8.76092C15.4315 9.01255 15.493 9.26789 15.5654 9.5275C15.6523 9.83784 15.9744 10.0188 16.2847 9.93217C16.595 9.84525 16.7763 9.52323 16.6894 9.21289Z" fill="white"/>
<path d="M28.1331 19.2919C28.1531 18.9702 27.9083 18.6932 27.5866 18.6735C25.1865 18.5256 22.3393 17.0774 20.1561 14.8939C19.0569 13.8081 18.1422 12.5503 17.4482 11.1698C17.3046 10.8817 16.9552 10.7643 16.6668 10.9071C16.3784 11.0498 16.2602 11.3992 16.4024 11.6879C17.1527 13.182 18.1419 14.5437 19.3308 15.7192C21.7428 18.1315 24.8023 19.6715 27.5147 19.8385C27.527 19.8394 27.5393 19.8397 27.5512 19.8397C27.8593 19.8391 28.1141 19.5994 28.1331 19.2919Z" fill="white"/>
</svg>

<svg width="35" height="35" fill="none" xmlns="http://www.w3.org/2000/svg"><path d="M.054 26.985c.546 4.56 6.043 8 12.786 8 6.062 0 11.211-2.798 12.524-6.803l.002-.002a6.166 6.166 0 0 0 .314-1.917 5.451 5.451 0 0 0-.041-.587l-.007-.062a7.215 7.215 0 0 0-2.408-4.453 12.313 12.313 0 0 0 4.743 1.041 7.648 7.648 0 0 0 3.88-.974h.001a5.996 5.996 0 0 0 1.246-.942c.28-.285.53-.598.748-.934 2.462-3.705.887-9.93-3.664-14.48C25.964.658 20.17-1.056 16.4.797a6.133 6.133 0 0 0-1.64 1.157 5.916 5.916 0 0 0-.488.568C11.47 6.133 12.965 12.655 17.68 17.37c.466.465.956.904 1.468 1.317a17.545 17.545 0 0 0-6.308-1.146c-6.02 0-11.3 2.892-12.552 6.876A6.158 6.158 0 0 0 0 26.263c.003.241.022.482.054.722zm12.786 6.833c-5.677 0-10.523-2.696-11.488-6.257l.07.007c.208.024.406.05.592.08.027.003.052.008.079.013.173.029.338.06.498.093l.08.016c.17.037.335.075.497.114l.104.026.465.119c1.505.427 3.064.63 4.628.601 1.562.029 3.12-.174 4.622-.602a14.613 14.613 0 0 1 4.327-.565c1.463-.03 2.922.16 4.33.564l.444.114.104.027c.16.04.324.078.494.115l.064.014c.158.033.323.065.494.096l.09.016c.186.032.383.06.59.087l.054.008c-1.509 3.118-6.03 5.314-11.138 5.314zm16.513-28.12c3.823 3.823 5.424 9.055 3.893 12.335l-.046-.055a13.275 13.275 0 0 1-.426-.525l-.032-.043c-.122-.16-.233-.316-.337-.467l-.051-.074c-.106-.156-.205-.31-.3-.46l-.055-.088a46.99 46.99 0 0 1-.273-.443 15.846 15.846 0 0 0-2.9-3.65 15.763 15.763 0 0 0-3.737-2.784 14.62 14.62 0 0 1-3.497-2.606 14.644 14.644 0 0 1-2.713-3.416l-.226-.37-.06-.095a18.16 18.16 0 0 0-.258-.405l-.032-.047c-.082-.124-.17-.252-.263-.383l-.064-.09a13.833 13.833 0 0 0-.336-.445c-.009-.01-.015-.02-.023-.03 3.335-1.123 8.125.53 11.736 4.14zM15.587 2.778c.28-.278.594-.52.934-.72l.028.034c.129.157.246.307.355.452l.054.072c.11.148.21.291.304.431l.056.083a16.75 16.75 0 0 1 .312.486l.252.411a15.817 15.817 0 0 0 2.897 3.648 15.78 15.78 0 0 0 3.736 2.784 14.603 14.603 0 0 1 3.498 2.605 14.682 14.682 0 0 1 2.716 3.42l.182.297c.02.034.043.069.064.102l.13.21.08.124a14.528 14.528 0 0 0 .734 1.035c.053.07.11.14.168.212.044.055.088.11.136.166.06.073.126.15.192.225l.153.176.038.044a4.153 4.153 0 0 1-.337.385 4.464 4.464 0 0 1-.613.508l-.02-.023c-.038-.042-.071-.082-.107-.124-.067-.078-.135-.156-.197-.231l-.11-.138a13.263 13.263 0 0 1-.492-.65l-.124-.181-.083-.122a19.636 19.636 0 0 1-.315-.494l-.058-.094a59.251 59.251 0 0 1-.173-.282 15.876 15.876 0 0 0-2.902-3.652 15.763 15.763 0 0 0-3.737-2.783 14.612 14.612 0 0 1-3.497-2.606 14.68 14.68 0 0 1-2.715-3.418l-.277-.45-.06-.095a17.688 17.688 0 0 0-.374-.57 13.807 13.807 0 0 0-.367-.509l-.068-.088a14.23 14.23 0 0 0-.474-.585l-.004-.006.085-.089zm2.918 13.766c-4.045-4.046-5.573-9.448-3.712-12.704l.042.051c.125.155.242.304.35.448l.057.08c.097.132.188.26.272.387l.047.068c.093.14.182.278.267.415a53.398 53.398 0 0 1 .3.488 15.855 15.855 0 0 0 2.9 3.65 15.774 15.774 0 0 0 3.736 2.782 14.619 14.619 0 0 1 3.498 2.605 14.715 14.715 0 0 1 2.718 3.421c.09.148.181.297.275.448l.066.105c.098.155.2.314.311.477l.069.1c.114.165.235.335.37.513l.018.024c.137.18.293.37.459.567.021.024.037.047.059.072-3.313 1.371-8.357-.253-12.102-3.997zm-5.665 2.163c5.728 0 10.583 2.725 11.503 6.324l-.068-.008c-.212-.023-.414-.05-.602-.08-.025-.003-.048-.008-.073-.012-.173-.028-.338-.06-.497-.092l-.095-.02a17.204 17.204 0 0 1-.488-.111l-.125-.032a52.711 52.711 0 0 1-.453-.115 15.896 15.896 0 0 0-4.628-.601 15.797 15.797 0 0 0-4.622.602 14.634 14.634 0 0 1-4.327.565 14.658 14.658 0 0 1-4.33-.564c-.145-.038-.29-.076-.439-.113l-.122-.03c-.158-.04-.32-.078-.488-.114l-.082-.017a14.587 14.587 0 0 0-.488-.095l-.093-.017c-.187-.032-.386-.06-.595-.086l-.06-.009c1.477-3.153 6.014-5.375 11.172-5.375zM1.282 25.215l.022.002c.226.024.434.052.633.082l.086.012c.191.031.371.065.545.1l.105.023c.168.036.331.073.49.112l.11.027.468.12c1.503.428 3.061.631 4.624.602 1.562.03 3.12-.174 4.622-.602a14.616 14.616 0 0 1 4.327-.565 14.718 14.718 0 0 1 4.335.564l.312.08.121.03c.072.019.144.037.218.054l.13.031a17.542 17.542 0 0 0 .744.156c.08.015.163.029.247.043l.158.025c.09.014.186.026.281.04l.156.02c.112.013.229.025.348.037.043.003.083.008.127.012l.021.003v.04a4.851 4.851 0 0 1-.132 1.112l-.024-.003c-.221-.023-.426-.05-.622-.08l-.09-.015a12.711 12.711 0 0 1-.648-.121 17.835 17.835 0 0 1-.483-.112l-.114-.028a55.869 55.869 0 0 1-.462-.118 15.813 15.813 0 0 0-4.623-.602 15.797 15.797 0 0 0-4.622.602 14.634 14.634 0 0 1-4.327.565 14.727 14.727 0 0 1-4.335-.564l-.319-.082-.097-.024-.234-.059-.134-.031a17.03 17.03 0 0 0-.213-.049l-.152-.032a16.089 16.089 0 0 0-.607-.114l-.18-.029a11.04 11.04 0 0 0-.245-.034l-.193-.026-.284-.03-.188-.019-.015-.001a4.91 4.91 0 0 1 .113-1.154z" fill="#fff"/><path d="M6.688 30.118a9.104 9.104 0 0 1-.684-.39.584.584 0 0 0-.621.987c.242.153.499.3.769.44a.584.584 0 0 0 .536-1.037zM20.45 29.168c-1.825 1.471-4.598 2.315-7.61 2.315a14.486 14.486 0 0 1-4.488-.675.583.583 0 0 0-.362 1.11c1.568.498 3.205.745 4.85.733 3.274 0 6.314-.939 8.343-2.575a.584.584 0 0 0-.733-.908zM16.69 9.213a9.216 9.216 0 0 1-.165-.681.584.584 0 0 0-1.144.229c.05.252.112.507.184.767a.584.584 0 0 0 1.124-.315zM28.133 19.292a.583.583 0 0 0-.546-.619c-2.4-.147-5.248-1.596-7.43-3.78a14.2 14.2 0 0 1-2.709-3.723.584.584 0 0 0-1.046.518 15.367 15.367 0 0 0 2.929 4.031c2.412 2.412 5.471 3.953 8.184 4.12h.036c.308 0 .563-.24.582-.547z" fill="#fff"/></svg>
